X:495
T:Where The Soul of Man Never Dies
C:Ricky Skaggs
N:Transcribed by Larry Tanner
R:bluegrass
L:1/8
Q:1/4=215
M:4/4
K:D
[e4B4] B,C E2 | "E"F^G GG GF EC | E2 E2 F^G B2 | B^G Be "A"cA ce | "E"B2 ee Bc B2 | 
F^G GG GB cB | "B"^GF ED ^DB, EF | "E"E2 ED B,A, G,^G, | E3E F^G BG | e2 [e3^G3][eG] [eG][eG] | 
[e4^G4] Bc e2 | "E"f^g gg gb gf | ec B^G EF G2 | B^G Be "A"cA ce | "E"B2 B2 B2 ^gf | 
ec fe cB ec | "B"B^G cB GF EF | "E"E2 D2 B,A, G,^G, | E3F ^GB cB | e2 [e3B3][eB] [eB][eB] | 


